X:1
T:Title
%%score ( 1 2 ) { 3 | ( 4 5 ) }
L:1/8
Q:1/4=130
M:4/4
K:F
V:1 treble nm="Grand Piano, Unnamed-000"
V:2 treble 
V:3 bass nm="Choir Pad, Illa"
V:4 bass 
V:5 bass 
V:1
 [CF]4 [CF]2 [CF]2 | z4 F2 z2 | A2 G2 F2 E2 | [CF]8 | [EG]4 [EG]2 [EG]2 | [FA]4 F4 | [EB]4 [FA]4 | %7
w: By~Lowell~Mason,~1841 * *|||||||
 [EG]8 | [CF]4 [CF]2 [CF]2 | [CE]4 F2 A2 | A2 G2 F2 E2 | [CF]8 | [EG]4 [EG]2 [EG]2 | [Fc]4 z2 G2 | %14
w: |||||||
 [FA]4 [EG]4 | F8 |] %16
w: ||
V:2
 x8 | [CE]4 C2- [CA]2 | C4 C4 | x8 | x8 | x8 | x8 | x8 | x8 | z4 C4 | C4 C4 | x8 | x8 | z4 F4 | %14
 x8 | x8 |] %16
V:3
 A,4 A,2 A,2 | B,4 A,2 C2 | C2 B,2 A,2 G,2 | A,8 | C4 C2 C2 | C4 C4 | C4 C4 | C8 | A,4 A,2 A,2 | %9
 B,4 A,2 C2 | C2 B,2 A,2 G,2 | A,8 | C4 C2 C2 | C4 D4 | C6 z2 | A,8 |] %16
V:4
 F,4 F,2 F,2 | G,4 F,4 | C,4 C,4 | F,8 | C,4 C,2 C,2 | F,4 A,4 | G,4 F,4 | C,8 | F,4 F,2 F,2 | %9
 G,4 F,4 | C,4 C,4 | F,8 | C,4 C,2 B,,2 | A,,4 B,,4 | C,4 z2 B,2 | F,8 |] %16
V:5
 x8 | x8 | x8 | x8 | x8 | x8 | x8 | x8 | x8 | x8 | x8 | x8 | x8 | x8 | z4 C,4 | x8 |] %16

